X:69
T: Landsknecht - Marsch
N: A0420
O: Europa, Mitteleuropa, Deutschland
N: Forster II 1540 No. 20.
R: Romanze, Ballade, Lied, Kriegslied
M: 4/2
L: 1/4
K: F
F2 | F2c2c2A2 | F8 | z6A2 | A2A2A2A2 | A4z2
A2 | A2A2A2A2 | A2A2A4 | A4G2F2 | G8 |
F3GA2B2 | c4d2d2 | c2A2B2G2 | F8 |
F3GA2B2 | c4d2d2 | c2A2B2G2 | F6

@@@ Tune index: 382
